X:479
T:Drumley's 
C:Joe Buchanan's Scottish Tome - Page 147.2
I:147 2
Z:Carl Allison
R:Polka
L:1/8
M:C
K:D
af |: "D"dd "Bm"dc/d/ | "Em"ee "A7"ef/e/ | "G"dcBA "A7"Bcde | "Bm"fd "A7"fgaf |
"D"dd "Bm"dc/d/ | "Em"ee "A7"ef/e/ | "Bm"dcBA "A7"Bdce |1 "D"d2 da/f/ :|2 "D"d2 de |]
"D"ff "D7"fe/f/ | "Em"gg gaba | "A7"ee ed/e/ | "D"fd fgaf |
"Bm"ff fe/f/ | "Em"ee ef/e/ | "G"dcBA "A7"Bdce |1 "D"d2 de :|2 "D"d3 d |]

